X: 1
T: Put Me In a Box
T: Put Me in the Big Chest
C: attr. William Marshall (1748-1833)
B: Skye Collection (in Bb): "Cuir sa chiste mh\'oir mi", "Miss Cruikshank's Reel", 1887
S: Fiddle Hell 2021-11-__ Natalie Haas Accompaniment Workshop
R: reel
Z: 2014 John Chambers <jc:trillian.mit.edu>
S: page from Concord Slow Scottish Session collection of unknown origin
N: The rhythms between the phrases don't quite match.
M: C|
L: 1/8
K: A
   AF | EFAB c2cf | ecBA F2AF | EFAB cBcf | ecBc A2 :|
|:  c | efec eAAc | efec BABc | efec efaf | ecBc A3 :|
|: AF | EFAB c2cB | c2cB cef2 | EFAB cBcf | ecBc A2 :|
|:  c | efec eAAc | efec BABc | efec efaf | ecBc A/A/A A :|
